X: 10841
T: TULLOCHGORUM
Q: "Strathspey."
%R: strathspey
B: W. Hamilton "Universal Tune-Book" Vol. 1 Glasgow 1844 p.84 #1
S: http://imslp.org/wiki/Hamilton's_Universal_Tune-Book_(Various)
Z: 2016 John Chambers <jc:trillian.mit.edu>
M: C
L: 1/8
K: G
% - - - - - - - - - - - - - - - - - - - - - - - - -
c |\
B<G d<G c>=F A>c | B>Gd<G B>cd<g |\
B>Gd>G c>=F A>c | d<g[dA]>c cBA :|\
B |\
G<gd>e =f>FA2 | G<gd<g B<gd<g |
G<gd<e =f>FA2 | G<g[dA]>c cBA>B |\
G<gd>e =f>FA2 | G<gd>e =f>ga>g |\
=f>efd c>=FAd | g<dg>b e<g d |]
% - - - - - - - - - - - - - - - - - - - - - - - - -

%%sep 1 1 500
%%sep 1 1 500

